X: 28535
T: Munster, The
R: jig
M: 6/8
K: Gmajor
|:~G3 AGA|~B2g gdB|GAB cBA|BGE EDE|
~G3 AGA|Bdg gdB|cBA B/c/dB|1 AGF GBA:|2 AGF GBd||
|:gfg efg|eag fed|gfg efg|afd def|
gfe agf|gfe fdB|cBA B/c/dB|1 AGF GBd:|2 AGF GBA||

